src/icons/rain.svg

<?xml version="1.0" encoding="UTF-8"?>
<!-- Generated by Pixelmator Pro 3.6.17 -->
<svg width="24" height="24" viewBox="0 0 24 24" xmlns="http://www.w3.org/2000/svg">
    <path id="secondary" fill="none" stroke="#2ca9bc" stroke-width="2" stroke-linecap="round" stroke-linejoin="round" d="M 6 17 L 6 19 M 10 17 L 10 21 M 14 17 L 14 19 M 18 17 L 18 21"/>
    <path id="primary" fill="none" stroke="#000000" stroke-width="2" stroke-linecap="round" stroke-linejoin="round" d="M 21 9 C 21 11.209139 19.209139 13 17 13 L 6 13 C 4.789887 13.009062 3.69282 12.290178 3.218051 11.177052 C 2.743283 10.063926 2.98379 8.774544 3.827929 7.907431 C 4.672068 7.040318 5.95453 6.765285 7.08 7.209999 C 7.410908 5.214613 8.911404 3.615135 10.881617 3.157608 C 12.85183 2.700081 14.903629 3.474636 16.08 5.119999 C 16.381105 5.045149 16.689768 5.004889 17 5 C 19.209139 5 21 6.790861 21 9 Z"/>
</svg>

<svg fill="#000000" viewBox="0 0 24 24" id="rain" data-name="Line Color" xmlns="http://www.w3.org/2000/svg" class="icon line-color"><path id="secondary" d="M6,17v2m4-2v4m4-4v2m4-2v4" style="fill: none; stroke: rgb(44, 169, 188); stroke-linecap: round; stroke-linejoin: round; stroke-width: 2;"></path><path id="primary" d="M21,9a4,4,0,0,1-4,4H6A3,3,0,1,1,7.08,7.21a5,5,0,0,1,9-2.09A4.08,4.08,0,0,1,17,5,4,4,0,0,1,21,9Z" style="fill: none; stroke: rgb(0, 0, 0); stroke-linecap: round; stroke-linejoin: round; stroke-width: 2;"></path></svg>
